icons/messenger.svg

<svg xmlns="http://www.w3.org/2000/svg" width="24" height="24" viewBox="0 0 24 24">
  <path d="M12,2 C6.5,2 2,6.14 2,11.25 C2.02747093,14.073999 3.37891258,16.7213436 5.65,18.4 L5.71,22 L9.16,20.12 C10.0948407,20.3781539 11.0601701,20.5093311 12.03,20.51 C17.53,20.51 22.03,16.37 22.03,11.26 C22.03,6.15 17.5,2 12,2 M13,14.41 L10.51,11.78 L5.51,14.41 L10.89,8.78 L13.47,11.25 L18.32,8.78 L13,14.41 Z"/>
</svg>

<svg xmlns="http://www.w3.org/2000/svg" viewBox="0 0 24 24">
  <path d="M12 2C6.5 2 2 6.14 2 11.25a9 9 0 0 0 3.65 7.15l.06 3.6 3.45-1.88c.93.26 1.9.39 2.87.39 5.5 0 10-4.14 10-9.25S17.5 2 12 2m1 12.41-2.49-2.63-5 2.63 5.38-5.63 2.58 2.47 4.85-2.47L13 14.41z"/>
</svg>
